X:55
T:Lothian Lassie, The
C:arr. Carlo Minasi
M:6/8
L:1/8
B:Chappell's One Hundred Scotch Melodies
B:Arranged for the Concertina by Carlo Minasi
Q:"Allegretto  "3/8=100
Z:Peter Dunk 2012
K:G
!mf!D|(G>AG) (B>cB)|(A>GA) G2 G|(B>AB) (GB[dB])|
([e3c3] [d2B2]) (e/f/)|([ge]>[fd][ec]) ([dB]g)>B|\
[AFD]>GA [BGD]G>[EC]|
[DB,]>ED (DE)[FC]|[GB,]A<B (A>GA)|\
[BG]dD D>G[BD]|L([A3C3][G2B,2]

